X: 17
M:2/4
L:1/16
K:G
(uBA)|GB,DG BDGB|dGBd gbag|fed^c =cAFD|GBAG FDBA|
|:ub2|bB^df bagf|e^def gfg^g|aA^ce agfe|
edd^c .d2(ab)|"4"c'afd ^cdef|gfga bgag|fAce dFBA|G2B2G2:|


